X:1
T:G Major Jacob French, 1802
T:Attributed to "K.," 1787 (Robert Keen?) (Words substituted for 1802 words) 11 11. 11 11.
T:Association
T:Transcribed from Harmony of Harmony, 1802
%%score [ 1 2 3 4 ]
L:1/8
Q:1/4=90
M:2/4
K:G
V:1 treble nm="Tr." snm="Tr."
V:2 treble nm="C." snm="C."
V:3 treble-8 nm="T." snm="T."
V:4 bass nm="B." snm="B."
V:1
 B | d2 Bd | g2 dB | ce dd | d3 d | d2 dc | B2 BB | cd c c/B/ | A3 G/A/ | B2 BB | B2 Bd | %11
w: 1.~How|firm a foun-|da- tion, ye|saints * of the|Lord, Is|laid for your|faith in his|ex- * cel- lent *|word! What *|more can be|say than to|
w: 2.~In|eve- ry con-|di- tion, in|sick- * ness, in|health, In|po- ver- ty's|vale, or a-|boun- * ding in *|wealth; At *|home and a-|broad, on the|
 eg/f/ ed | d3 d | g2 fe | d2 Bd | ec BA | B3 B/c/ | d2 dd | d3 d/c/ | B2 BB | B>c dd | g2 fe | %22
w: he * * he hath|said? You,|who un- to|Je- sus for|re- * fuge hath|fled, for *|re- fuge hath|fled, for *|re- fuge hath|fled,~ _ _ You|who un- to|
w: land, * * on the|sea, As|thy days may|de- mand, shall|thy * strength e'er|be, shall *|thy strength e'er|be, thy *|strength ev- er|be,~ _ _ As|thy days may|
 d2 Bd | ec BA | B4- | B4 |] %26
w: Je- sus for|re- * fuge hath|fled.||
w: de- mand, shall|thy * strength e'er|be.||
V:2
 D | G2 DG | B2 GB | AG FF | G3 F | G2 GG | G2 G F/G/ | AB AG | F3 D | G2 GF | G2 GG | GB AA | %12
w: 3.~~Fear|not, I am|with thee, O|be * not dis-|mayed, For|I am thy|God and will *|still * give thee|aid; I'll|streng- then thee,|help thee, and|cause * thee to|
w: 4.~~When|through the deep|wa- ters I|call * thee to|go, The|ri- vers of|woe shall not *|thee * o- ver-|flow; For|I will be|with thee, thy|trou- * bles to|
 B3 A | BG AA | G2 GG | GA DD | D3"^thy""^om –" z | %17
w: stand, Up-|held * by my|right- eous om-|ni- * po- tent|hand.|
w: bless, And|sanc- * ti- fy|to thee thy|dee- * pest dis-|tress,|
"^dee–pest      dis–tress,""^– ni – po   –  tent hand," z4 | z2 z G | G2 GG | G>A BA | BG AA | %22
w: |om-|ni- po- tent|hand,~ _ _ Up-|held * by my|
w: |thy|dee- pest dis-|tress,~ _ _ And|sanc- * ti- fy|
 G2 GG | GA DD | D4- | D4 |] %26
w: right- eous, om-|ni- * po- tent|hand.||
w: to thee thy|dee- * pest dis-|tress.||
V:3
 G | B2 GB | d2 Bd | ec BA | B3 A | B2 Bc | d2 dd | e/f/g fe | d3 B | e2 e^d | e2 dB | cd ef | %12
w: 5.~When|through fie- ry|tri- als thy|path- * way may|lie, My|grace all- suf-|fi- cient shall|be * * thy sup-|ply; The|flame shall not|hurt thee, I|on- * ly de-|
w: 6.~~E'en|down to old|age, all my|peo- * ple shall|prove My|sove- reign, e-|ter- nal, un-|change- * * a- ble|love; And|when hoa- ry|hairs shall their|tem- * ples a-|
 g3 f | e2 dc | B2 GB | cA GF | G3 G/A/ | B2 BB | B3 B/c/ | d2 dd | de/f/ gf | e2 dc | B2 GB | %23
w: sign Thy|dross to con-|sume and thy|gold * to re-|fine, thy *|gold to re-|fine, thy *|gold to re-|fine,~ _ _ _ Thy|dross to con-|sume, and thy|
w: dorn, Like|lambs they shall|still in my|bo- * som be|borne, my *|bo- som be|borne, my *|bo- som be|borne,~ _ _ _ Like|lambs they shall|still in my|
 cA GF | G4- | G4 |] %26
w: gold * to re-|fine.||
w: bo- * som be|borne.||
V:4
 G, | G,2 G,G, | G,2 G,G, | C,2 D,D, | [G,,G,]3 D, | G,2 G,G, | G,2 G,B, | A,G, A,A,, | %8
w: 7.~The|soul that on|Je- sus hath|leaned for re-|pose, I|will not, I|will not de-|sert * to his|
 D,3 G,/F,/ | E,2 E,B,, | E,2 G,G, | CB, CD | G,3 D, | E,2 F,F, | G,2 G,G, | C,2 D,D, | %16
w: foes; That *|soul, through all|hell should en-|dea- * vor to|shake, I'll|ne- ver, no|ne- ver, no|ne- ver for-|
 G,,3"^no" z |"^ne  –  ver     for –   sake," z4 | z2 z G, | G,2 G,G, | G,3 D, | E,2 F,F, | %22
w: sake,||no|ne- ver for-|sake,~ I'll|ne- ver, no|
 G,2 G,G, | C,2 D,D, | G,,4- | G,,4 |] %26
w: ne- ver, no|ne- ver for-|sake.||

